symbolic/64x64/places/folder-grey-development.svg

<svg xmlns="http://www.w3.org/2000/svg" width="64" height="64" version="1">
 <rect style="opacity:0.2" width="56" height="36" x="4" y="22" rx="2.8" ry="2.8"/>
 <path style="fill:#727272" d="M 4,46.2 C 4,47.751 5.2488,49 6.8,49 H 57.2 C 58.751,49 60,47.751 60,46.2 V 15.8 C 60,14.249 58.751,13 57.2,13 H 32 C 27.8,13 26.4,7 22.2,7 H 6.8 C 5.2488,7 4,8.2488 4,9.8"/>
 <rect style="opacity:0.2" width="56" height="36" x="4" y="20" rx="2.8" ry="2.8"/>
 <rect style="fill:#e4e4e4" width="48" height="22" x="8" y="16" rx="2.8" ry="2.8"/>
 <rect style="fill:#8e8e8e" width="56" height="36" x="4" y="21" rx="2.8" ry="2.8"/>
 <path style="opacity:0.1;fill:#ffffff" d="M 6.8008,7 C 5.2496,7 4,8.2496 4,9.8008 V 10.801 C 4,9.2496 5.2496,8 6.8008,8 H 22.199 C 26.399,8 27.8,14 32,14 H 57.199 C 58.75,14 60,15.25 60,16.801 V 15.801 C 60,14.25 58.75,13 57.199,13 H 32 C 27.8,13 26.399,7 22.199,7 Z"/>
 <path style="fill:#323232" d="M 29.476,29 V 29.004 L 29.254,31.637 A 7.9283,7.8567 0 0 0 26.937,32.965 L 24.523,31.836 22,36.168 24.195,37.68 A 7.9283,7.8567 0 0 0 24.07,39.004 7.9283,7.8567 0 0 0 24.187,40.336 L 22,41.836 24.523,46.168 26.933,45.039 A 7.9283,7.8567 0 0 0 29.257,46.363 L 29.476,49 H 34.523 L 34.746,46.367 A 7.9283,7.8567 0 0 0 37.062,45.039 L 39.476,46.164 42,41.836 39.809,40.328 A 7.9283,7.8567 0 0 0 39.926,39 7.9283,7.8567 0 0 0 39.809,37.672 L 41.997,36.164 39.477,31.836 37.063,32.961 A 7.9283,7.8567 0 0 0 34.743,31.641 L 34.524,29 H 29.477 Z M 32,35 A 4,4 0 0 1 36,39 4,4 0 0 1 32,43 4,4 0 0 1 28,39 4,4 0 0 1 32,35 Z"/>
</svg>

<svg xmlns="http://www.w3.org/2000/svg" width="64" height="64" version="1"><rect style="opacity:.2" width="56" height="36" x="4" y="22" rx="2.8" ry="2.8"/><path style="fill:#727272" d="M4 46.2C4 47.751 5.249 49 6.8 49h50.4c1.551 0 2.8-1.249 2.8-2.8V15.8c0-1.551-1.249-2.8-2.8-2.8H32c-4.2 0-5.6-6-9.8-6H6.8A2.794 2.794 0 0 0 4 9.8"/><rect style="opacity:.2" width="56" height="36" x="4" y="20" rx="2.8" ry="2.8"/><rect style="fill:#e4e4e4" width="48" height="22" x="8" y="16" rx="2.8" ry="2.8"/><rect style="fill:#8e8e8e" width="56" height="36" x="4" y="21" rx="2.8" ry="2.8"/><path style="opacity:.1;fill:#fff" d="M6.8 7C5.25 7 4 8.25 4 9.8v1.001A2.795 2.795 0 0 1 6.8 8H22.2c4.2 0 5.601 6 9.801 6h25.199A2.796 2.796 0 0 1 60 16.801v-1A2.796 2.796 0 0 0 57.199 13H32c-4.2 0-5.601-6-9.801-6z"/><path style="fill:#323232" d="M29.476 29v.004l-.222 2.633a7.928 7.857 0 0 0-2.317 1.328l-2.414-1.129L22 36.168l2.195 1.512a7.928 7.857 0 0 0-.125 1.324 7.928 7.857 0 0 0 .117 1.332L22 41.836l2.523 4.332 2.41-1.129a7.928 7.857 0 0 0 2.324 1.324L29.476 49h5.047l.223-2.633a7.928 7.857 0 0 0 2.316-1.328l2.414 1.125L42 41.836l-2.191-1.508A7.928 7.857 0 0 0 39.926 39a7.928 7.857 0 0 0-.117-1.328l2.188-1.508-2.52-4.328-2.414 1.125a7.928 7.857 0 0 0-2.32-1.32L34.524 29h-5.047zM32 35a4 4 0 0 1 4 4 4 4 0 0 1-4 4 4 4 0 0 1-4-4 4 4 0 0 1 4-4z"/></svg>
